X: 12291
T: Fairy Piper, The
R: polka
M: 2/4
K: Dmajor
|:AD FE/D/|AD FE/D/|E/F/E/D/ EF|E/F/E/D/ EF|
DD EE|FF GF/G/|Ad E/F/G/E/|FD DB:|
|:Ad dc/d/|ed dc|A/G/A/B/ cd|ed cA|
Ad dc/d/|ed dc|A/G/A/B/ cE/G/|FD DB:|

